teeny/solid/calendar-tick.svg

<svg width="15" height="15" viewBox="0 0 15 15" fill="none" xmlns="http://www.w3.org/2000/svg">
<path fill-rule="evenodd" clip-rule="evenodd" d="M13.5 2H12V0H11V2H4V0H3V2H1.5C0.671573 2 0 2.67157 0 3.5V13.5C0 14.3284 0.671573 15 1.5 15H13.5C14.3284 15 15 14.3284 15 13.5V3.5C15 2.67157 14.3284 2 13.5 2ZM7.02439 11.2315L10.8763 6.82928L10.1237 6.17078L6.97568 9.76857L5.35359 8.14647L4.64648 8.85358L7.02439 11.2315Z" fill="black"/>
</svg>

<svg viewBox="0 0 15 15" xmlns="http://www.w3.org/2000/svg"><path fill-rule="evenodd" d="M13.5 2H12V0h-1v2H4V0H3v2H1.5C.67 2 0 2.67 0 3.5v10c0 .82.67 1.5 1.5 1.5h12c.82 0 1.5-.68 1.5-1.5v-10c0-.83-.68-1.5-1.5-1.5Zm-6.48 9.23l3.85-4.41 -.76-.66 -3.15 3.59 -1.63-1.63 -.71.7 2.37 2.37Z"/></svg>
